;FLAVOR:Marlin
;TIME:1094
;Filament used: 0.949555m
;Layer height: 0.2
;MINX:105
;MINY:105
;MINZ:0.2
;MAXX:147
;MAXY:147
;MAXZ:20.2
;POSTPROCESSED
;Generated with Cura_SteamEngine 5.2.1
;
;

M140 S55
M105
M190 S55
M104 S215
M105
M109 S215
M82 ;absolute extrusion mode
G28 ;Home

G92 E0 ;Reset Extruder
G1 Z2.0 F3000 ;Move Z Axis up
G1 X10.1 Y20 Z0.28 F5000.0 ;Move to start position
G1 X10.1 Y200.0 Z0.28 F1500.0 E15 ;Draw the first line
G1 X10.4 Y200.0 Z0.28 F5000.0 ;Move to side a little
G1 X10.4 Y20 Z0.28 F1500.0 E30 ;Draw the second line
G92 E0 ;Reset Extruder
G1 Z2.0 F3000 ;Move Z Axis up
G92 E0
G92 E0
G1 F4800 E-4.2
;LAYER_COUNT:100
;LAYER:0
M107
G1 F300 Z0.4
G0 F6000 X108.198 Y108.264 Z0.4
;TYPE:SKIRT
G1 F300 Z0.2
G1 F4800 E0
G1 F1200 X108.886 Y107.627 E0.02807
G1 X109.626 Y107.051 E0.05614
G1 X110.412 Y106.539 E0.08422
G1 X111.239 Y106.097 E0.11229
G1 X112.101 Y105.727 E0.14037
G1 X112.991 Y105.431 E0.16844
G1 X113.903 Y105.213 E0.19651
G1 X114.83 Y105.072 E0.22458
G1 X115.701 Y105.013 E0.25071
G1 X116.33 Y105 E0.26954
G1 X135.451 Y105.001 E0.84191
G1 X136.149 Y105.011 E0.86281
G1 X137.085 Y105.065 E0.89088
G1 X138.013 Y105.197 E0.91893
G1 X138.927 Y105.409 E0.94702
G1 X139.819 Y105.698 E0.97509
G1 X140.684 Y106.061 E1.00317
G1 X141.514 Y106.497 E1.03123
G1 X142.305 Y107.002 E1.05933
G1 X143.049 Y107.573 E1.0874
G1 X143.742 Y108.205 E1.11547
G1 X144.379 Y108.893 E1.14354
G1 X144.954 Y109.634 E1.17162
G1 X145.465 Y110.42 E1.19968
G1 X145.907 Y111.248 E1.22778
G1 X146.276 Y112.11 E1.25584
G1 X146.571 Y113 E1.28391
G1 X146.789 Y113.912 E1.31198
G1 X146.929 Y114.84 E1.34007
G1 X146.987 Y115.701 E1.36591
G1 X147 Y116.33 E1.38474
G1 X146.999 Y135.4 E1.95558
G1 X146.99 Y136.127 E1.97735
G1 X146.939 Y137.064 E2.00544
G1 X146.807 Y137.992 E2.03349
G1 X146.598 Y138.906 E2.06156
G1 X146.311 Y139.799 E2.08964
G1 X145.949 Y140.665 E2.11773
G1 X145.515 Y141.496 E2.1458
G1 X145.011 Y142.287 E2.17387
G1 X144.442 Y143.032 E2.20193
G1 X143.811 Y143.727 E2.23003
G1 X143.124 Y144.365 E2.2581
G1 X142.385 Y144.942 E2.28616
G1 X141.599 Y145.454 E2.31424
G1 X140.773 Y145.897 E2.3423
G1 X139.911 Y146.269 E2.3704
G1 X139.022 Y146.565 E2.39845
G1 X138.11 Y146.785 E2.42654
G1 X137.183 Y146.926 E2.4546
G1 X136.299 Y146.987 E2.48113
G1 X135.67 Y147 E2.49996
G1 X116.565 Y146.999 E3.07185
G1 X115.867 Y146.99 E3.09275
G1 X114.931 Y146.938 E3.12081
G1 X114.002 Y146.806 E3.1489
G1 X113.088 Y146.596 E3.17697
G1 X112.195 Y146.309 E3.20505
G1 X111.33 Y145.946 E3.23313
G1 X110.499 Y145.512 E3.26119
G1 X109.708 Y145.008 E3.28927
G1 X108.963 Y144.438 E3.31735
G1 X108.269 Y143.807 E3.34543
G1 X107.632 Y143.12 E3.37347
G1 X107.055 Y142.38 E3.40156
G1 X106.543 Y141.594 E3.42964
G1 X106.1 Y140.767 E3.45772
G1 X105.729 Y139.906 E3.48579
G1 X105.433 Y139.016 E3.51386
G1 X105.214 Y138.104 E3.54194
G1 X105.073 Y137.177 E3.57001
G1 X105.013 Y136.288 E3.59668
G1 X105 Y135.658 E3.61554
G1 X105.001 Y116.525 E4.18827
G1 X105.01 Y115.86 E4.20818
G1 X105.063 Y114.924 E4.23624
G1 X105.195 Y113.995 E4.26433
G1 X105.406 Y113.081 E4.29241
G1 X105.694 Y112.189 E4.32047
G1 X106.057 Y111.324 E4.34855
G1 X106.492 Y110.493 E4.37663
G1 X106.996 Y109.703 E4.40468
G1 X107.566 Y108.958 E4.43276
G1 X108.198 Y108.264 E4.46085
G0 F6000 X108.589 Y108.439
G1 F1200 X109.274 Y107.823 E4.48843
G1 X110.01 Y107.27 E4.51599
G1 X110.791 Y106.782 E4.54355
G1 X111.611 Y106.364 E4.57111
G1 X112.465 Y106.019 E4.59868
G1 X113.345 Y105.749 E4.62623
G1 X114.245 Y105.557 E4.65378
G1 X115.159 Y105.443 E4.68135
G1 X115.712 Y105.413 E4.69793
G1 X116.33 Y105.4 E4.71643
G1 X135.293 Y105.4 E5.28407
G1 X136.143 Y105.411 E5.30952
G1 X137.062 Y105.464 E5.33707
G1 X137.973 Y105.597 E5.36463
G1 X138.869 Y105.808 E5.39219
G1 X139.743 Y106.096 E5.41973
G1 X140.59 Y106.459 E5.44732
G1 X141.401 Y106.894 E5.47487
G1 X142.171 Y107.398 E5.50241
G1 X142.895 Y107.967 E5.52998
G1 X143.567 Y108.597 E5.55755
G1 X144.182 Y109.282 E5.58511
G1 X144.735 Y110.018 E5.61266
G1 X145.222 Y110.799 E5.64022
G1 X145.639 Y111.62 E5.66778
G1 X145.984 Y112.474 E5.69535
G1 X146.253 Y113.354 E5.7229
G1 X146.445 Y114.255 E5.75047
G1 X146.558 Y115.168 E5.77801
G1 X146.587 Y115.712 E5.79432
G1 X146.6 Y116.33 E5.81282
G1 X146.599 Y135.395 E6.38352
G1 X146.59 Y136.122 E6.40528
G1 X146.539 Y137.041 E6.43283
G1 X146.408 Y137.953 E6.46041
G1 X146.198 Y138.849 E6.48796
G1 X145.912 Y139.724 E6.51552
G1 X145.551 Y140.571 E6.54308
G1 X145.117 Y141.383 E6.57064
G1 X144.615 Y142.155 E6.5982
G1 X144.047 Y142.88 E6.62577
G1 X143.419 Y143.553 E6.65333
G1 X142.735 Y144.169 E6.68088
G1 X142 Y144.723 E6.70843
G1 X141.22 Y145.212 E6.73599
G1 X140.4 Y145.631 E6.76355
G1 X139.547 Y145.977 E6.79111
G1 X138.667 Y146.248 E6.81867
G1 X137.767 Y146.441 E6.84622
G1 X136.853 Y146.556 E6.8738
G1 X136.288 Y146.587 E6.89074
G1 X135.67 Y146.6 E6.90924
G1 X116.57 Y146.599 E7.48098
G1 X115.872 Y146.59 E7.50188
G1 X114.953 Y146.538 E7.52943
G1 X114.042 Y146.407 E7.55698
G1 X113.146 Y146.197 E7.58453
G1 X112.271 Y145.91 E7.6121
G1 X111.424 Y145.548 E7.63967
G1 X110.612 Y145.114 E7.66723
G1 X109.841 Y144.612 E7.69477
G1 X109.116 Y144.044 E7.72234
G1 X108.443 Y143.415 E7.74991
G1 X107.828 Y142.731 E7.77745
G1 X107.274 Y141.996 E7.805
G1 X106.786 Y141.215 E7.83257
G1 X106.367 Y140.395 E7.86013
G1 X106.021 Y139.542 E7.88769
G1 X105.751 Y138.662 E7.91524
G1 X105.558 Y137.761 E7.94282
G1 X105.444 Y136.848 E7.97036
G1 X105.413 Y136.277 E7.98748
G1 X105.4 Y135.658 E8.00601
G1 X105.401 Y116.531 E8.57856
G1 X105.41 Y115.866 E8.59847
G1 X105.462 Y114.946 E8.62606
G1 X105.594 Y114.035 E8.65361
G1 X105.805 Y113.139 E8.68117
G1 X106.092 Y112.264 E8.70873
G1 X106.455 Y111.418 E8.73629
G1 X106.889 Y110.606 E8.76385
G1 X107.392 Y109.835 E8.7914
G1 X107.961 Y109.111 E8.81897
G1 X108.589 Y108.439 E8.8465
G0 F6000 X108.981 Y108.617
G1 F1200 X109.662 Y108.024 E8.87353
G1 X110.394 Y107.494 E8.90058
G1 X111.169 Y107.031 E8.92761
G1 X111.982 Y106.638 E8.95464
G1 X112.827 Y106.318 E8.98169
G1 X113.696 Y106.075 E9.0087
G1 X114.584 Y105.909 E9.03574
G1 X115.723 Y105.813 E9.06995
G1 X116.33 Y105.8 E9.08813
G1 X135.293 Y105.8 E9.65577
G1 X136.137 Y105.811 E9.68104
G1 X137.039 Y105.864 E9.70808
G1 X137.932 Y105.996 E9.7351
G1 X138.81 Y106.207 E9.76214
G1 X139.666 Y106.495 E9.78917
G1 X140.493 Y106.857 E9.81619
G1 X141.285 Y107.292 E9.84324
G1 X142.036 Y107.794 E9.87028
G1 X142.739 Y108.361 E9.89732
G1 X143.389 Y108.988 E9.92435
G1 X143.981 Y109.67 E9.95139
G1 X144.511 Y110.401 E9.97841
G1 X144.973 Y111.177 E10.00545
G1 X145.366 Y111.99 E10.03248
G1 X145.684 Y112.835 E10.0595
G1 X145.927 Y113.705 E10.08654
G1 X146.092 Y114.593 E10.11358
G1 X146.187 Y115.723 E10.14752
G1 X146.2 Y116.33 E10.1657
G1 X146.199 Y135.39 E10.73624
G1 X146.19 Y136.117 E10.75801
G1 X146.139 Y137.019 E10.78505
G1 X146.008 Y137.913 E10.8121
G1 X145.799 Y138.791 E10.83911
G1 X145.513 Y139.648 E10.86616
G1 X145.152 Y140.476 E10.8932
G1 X144.72 Y141.268 E10.9202
G1 X144.219 Y142.02 E10.94725
G1 X143.653 Y142.724 E10.97429
G1 X143.028 Y143.375 E11.00131
G1 X142.347 Y143.969 E11.02836
G1 X141.616 Y144.5 E11.0554
G1 X140.842 Y144.964 E11.08241
G1 X140.029 Y145.358 E11.10946
G1 X139.185 Y145.678 E11.13648
G1 X138.315 Y145.923 E11.16353
G1 X137.428 Y146.089 E11.19055
G1 X136.277 Y146.187 E11.22512
G1 X135.67 Y146.2 E11.2433
G1 X116.575 Y146.199 E11.81489
G1 X115.877 Y146.19 E11.83579
G1 X114.976 Y146.139 E11.8628
G1 X114.082 Y146.007 E11.88985
G1 X113.204 Y145.798 E11.91687
G1 X112.347 Y145.511 E11.94392
G1 X111.52 Y145.15 E11.97093
G1 X110.727 Y144.717 E11.99798
G1 X109.976 Y144.216 E12.025
G1 X109.272 Y143.65 E12.05204
G1 X108.621 Y143.024 E12.07908
G1 X108.028 Y142.343 E12.10611
G1 X107.498 Y141.612 E12.13314
G1 X107.034 Y140.837 E12.16018
G1 X106.64 Y140.024 E12.18722
G1 X106.32 Y139.18 E12.21424
G1 X106.076 Y138.31 E12.24129
G1 X105.91 Y137.422 E12.26833
G1 X105.813 Y136.267 E12.30302
G1 X105.8 Y135.658 E12.32126
G1 X105.801 Y116.536 E12.89366
G1 X105.81 Y115.871 E12.91357
G1 X105.862 Y114.969 E12.94061
G1 X105.994 Y114.076 E12.96763
G1 X106.204 Y113.198 E12.99466
G1 X106.491 Y112.341 E13.02171
G1 X106.853 Y111.514 E13.04873
G1 X107.286 Y110.722 E13.07575
G1 X107.788 Y109.971 E13.10279
G1 X108.355 Y109.267 E13.12985
G1 X108.981 Y108.617 E13.15687
G1 F4800 E8.95687
G1 F300 Z0.4
;MESH:xyzCalibration_cube.stl
G0 F6000 X117 Y117 Z0.4
;TYPE:WALL-INNER
G1 F300 Z0.2
G1 F4800 E13.15687
G1 F1200 X117 Y135 E13.66575
G1 X135 Y135 E14.17463
G1 X135 Y126 E14.42907
G1 X135 Y117 E14.68351
G1 X117 Y117 E15.19239
G0 F6000 X116.6 Y116.6
G1 F1200 X116.6 Y135.4 E15.72388
G1 X135.4 Y135.4 E16.25538
G1 X135.4 Y126 E16.52113
G1 X135.4 Y116.6 E16.78688
G1 X116.6 Y116.6 E17.31837
G0 F6000 X116.2 Y116.2
;TYPE:WALL-OUTER
G1 F1200 X116.2 Y135.8 E17.83989
G1 X135.8 Y135.8 E18.36141
G1 X135.8 Y126 E18.62217
G1 X135.8 Y116.2 E18.88293
G1 X116.2 Y116.2 E19.40445
G1 F4800 E15.20445
G1 F300 Z0.4
G0 F6000 X117.4 Y117.4 Z0.4
;TYPE:SKIN
G1 F300 Z0.2
G1 F4800 E19.40445
G1 F1200 X117.4 Y134.6 E19.97509
G1 X134.6 Y134.6 E20.54574
G1 X134.6 Y117.4 E21.11638
G1 X126 Y117.4 E21.4017
G1 X117.4 Y117.4 E21.68703
G1 F4800 E17.48703
G1 F300 Z0.4
G0 F6000 X134.399 Y117.994 Z0.4
G1 F300 Z0.2
G1 F4800 E21.68703
G1 F1200 X134.004 Y117.599 E21.70556
G0 F6000 X133.438 Y117.599
G1 F1200 X134.399 Y118.56 E21.75065
G0 F6000 X134.399 Y119.126
G1 F1200 X132.873 Y117.599 E21.82227
G0 F6000 X132.307 Y117.599
G1 F1200 X134.399 Y119.691 E21.92043
G0 F6000 X134.399 Y120.257
G1 F1200 X131.741 Y117.599 E22.04514
G0 F6000 X131.176 Y117.599
G1 F1200 X134.399 Y120.823 E22.19638
G0 F6000 X134.399 Y121.389
G1 F1200 X130.61 Y117.599 E22.37418
G0 F6000 X130.044 Y117.599
G1 F1200 X134.399 Y121.954 E22.57852
G0 F6000 X134.399 Y122.52
G1 F1200 X129.479 Y117.599 E22.80938
G0 F6000 X128.913 Y117.599
G1 F1200 X134.399 Y123.086 E23.06681
G0 F6000 X134.399 Y123.651
G1 F1200 X128.347 Y117.599 E23.35076
G0 F6000 X127.781 Y117.599
G1 F1200 X134.399 Y124.217 E23.66127
G0 F6000 X134.399 Y124.783
G1 F1200 X127.216 Y117.599 E23.99832
G0 F6000 X126.65 Y117.599
G1 F1200 X134.399 Y125.348 E24.3619
G0 F6000 X134.399 Y125.914
G1 F1200 X126.084 Y117.599 E24.75203
G0 F6000 X125.519 Y117.599
G1 F1200 X134.399 Y126.48 E25.1687
G0 F6000 X134.399 Y127.045
G1 F1200 X124.953 Y117.599 E25.6119
G0 F6000 X124.387 Y117.599
G1 F1200 X134.399 Y127.611 E26.08166
G0 F6000 X134.399 Y128.177
G1 F1200 X123.822 Y117.599 E26.57794
G0 F6000 X123.256 Y117.599
G1 F1200 X134.399 Y128.742 E27.10077
G0 F6000 X134.399 Y129.308
G1 F1200 X122.69 Y117.599 E27.65015
G0 F6000 X122.125 Y117.599
G1 F1200 X134.399 Y129.874 E28.22606
G0 F6000 X134.399 Y130.439
G1 F1200 X121.559 Y117.599 E28.8285
G0 F6000 X120.993 Y117.599
G1 F1200 X134.399 Y131.005 E29.4575
G0 F6000 X134.399 Y131.571
G1 F1200 X120.428 Y117.599 E30.11304
G0 F6000 X119.862 Y117.599
G1 F1200 X134.399 Y132.137 E30.79513
G0 F6000 X134.399 Y132.702
G1 F1200 X119.296 Y117.599 E31.50375
G0 F6000 X118.731 Y117.599
G1 F1200 X134.399 Y133.268 E32.2389
G0 F6000 X134.399 Y133.834
G1 F1200 X118.165 Y117.599 E33.00062
G0 F6000 X117.599 Y117.599
G1 F1200 X134.399 Y134.399 E33.78886
G0 F6000 X133.833 Y134.399
G1 F1200 X117.599 Y118.165 E34.55055
G0 F6000 X117.599 Y118.731
G1 F1200 X133.267 Y134.399 E35.28568
G0 F6000 X132.702 Y134.399
G1 F1200 X117.599 Y119.296 E35.9943
G0 F6000 X117.599 Y119.862
G1 F1200 X132.136 Y134.399 E36.67637
G0 F6000 X131.57 Y134.399
G1 F1200 X117.599 Y120.428 E37.33188
G0 F6000 X117.599 Y120.993
G1 F1200 X131.004 Y134.399 E37.96086
G0 F6000 X130.439 Y134.399
G1 F1200 X117.599 Y121.559 E38.5633
G0 F6000 X117.599 Y122.125
G1 F1200 X129.873 Y134.399 E39.13919
G0 F6000 X129.307 Y134.399
G1 F1200 X117.599 Y122.69 E39.68855
G0 F6000 X117.599 Y123.256
G1 F1200 X128.742 Y134.399 E40.21137
G0 F6000 X128.176 Y134.399
G1 F1200 X117.599 Y123.822 E40.70763
G0 F6000 X117.599 Y124.387
G1 F1200 X127.61 Y134.399 E41.17737
G0 F6000 X127.045 Y134.399
G1 F1200 X117.599 Y124.953 E41.62057
G0 F6000 X117.599 Y125.519
G1 F1200 X126.479 Y134.399 E42.03721
G0 F6000 X125.913 Y134.399
G1 F1200 X117.599 Y126.084 E42.42732
G0 F6000 X117.599 Y126.65
G1 F1200 X125.348 Y134.399 E42.7909
G0 F6000 X124.782 Y134.399
G1 F1200 X117.599 Y127.216 E43.12792
G0 F6000 X117.599 Y127.781
G1 F1200 X124.216 Y134.399 E43.43841
G0 F6000 X123.651 Y134.399
G1 F1200 X117.599 Y128.347 E43.72237
G0 F6000 X117.599 Y128.913
G1 F1200 X123.085 Y134.399 E43.97977
G0 F6000 X122.519 Y134.399
G1 F1200 X117.599 Y129.479 E44.21061
G0 F6000 X117.599 Y130.044
G1 F1200 X121.953 Y134.399 E44.41492
G0 F6000 X121.388 Y134.399
G1 F1200 X117.599 Y130.61 E44.5927
G0 F6000 X117.599 Y131.176
G1 F1200 X120.822 Y134.399 E44.74392
G0 F6000 X120.256 Y134.399
G1 F1200 X117.599 Y131.741 E44.86861
G0 F6000 X117.599 Y132.307
G1 F1200 X119.691 Y134.399 E44.96676
G0 F6000 X119.125 Y134.399
G1 F1200 X117.599 Y132.873 E45.03836
G0 F6000 X117.599 Y133.438
G1 F1200 X118.559 Y134.399 E45.08343
G0 F6000 X117.994 Y134.399
G1 F1200 X117.599 Y134.004 E45.10196
G1 F4800 E40.90196
G1 F300 Z0.4
;MESH:NONMESH
G0 F6000 X117 Y117 Z0.4
;TIME_ELAPSED:82.940972
;LAYER:1
M106 S68
;TYPE:WALL-INNER
;MESH:xyzCalibration_cube.stl
G1 F300 Z0.4
G1 F4800 E45.10196
G1 F2800 X117 Y135 E45.61084
G1 X135 Y135 E46.11972
G1 X135 Y126 E46.37416
G1 X135 Y117 E46.6286
G1 X117 Y117 E47.13748
G0 F9000 X116.6 Y116.6
G1 F2800 X116.6 Y135.4 E47.66898
G1 X135.4 Y135.4 E48.20047
G1 X135.4 Y126 E48.46622
G1 X135.4 Y116.6 E48.73197
G1 X116.6 Y116.6 E49.26347
G0 F9000 X116.2 Y116.2
;TYPE:WALL-OUTER
G1 F2800 X116.2 Y135.8 E49.78499
G1 X135.8 Y135.8 E50.3065
G1 X135.8 Y126 E50.56726
G1 X135.8 Y116.2 E50.82802
G1 X116.2 Y116.2 E51.34954
G1 F4800 E47.14954
G1 F300 Z0.6
G0 F9000 X117.4 Y117.4 Z0.6
;TYPE:SKIN
G1 F300 Z0.4
G1 F4800 E51.34954
G1 F2800 X117.4 Y134.6 E51.89301
G1 X134.6 Y134.6 E52.43648
G1 X134.6 Y126 E52.70822
G1 X134.6 Y117.4 E52.97995
G1 X117.4 Y117.4 E53.52343
G0 F9000 X117.599 Y117.725
G1 F2800 X117.725 Y117.599 E53.52906
G0 F9000 X118.291 Y117.599
G1 F2800 X117.599 Y118.291 E53.55998
G0 F9000 X117.599 Y118.856
G1 F2800 X118.856 Y117.599 E53.61615
G0 F9000 X119.422 Y117.599
G1 F2800 X117.599 Y119.422 E53.69761
G0 F9000 X117.599 Y119.988
G1 F2800 X119.988 Y117.599 E53.80436
G0 F9000 X120.553 Y117.599
G1 F2800 X117.599 Y120.553 E53.93636
G0 F9000 X117.599 Y121.119
G1 F2800 X121.119 Y117.599 E54.09365
G0 F9000 X121.685 Y117.599
G1 F2800 X117.599 Y121.685 E54.27623
G0 F9000 X117.599 Y122.25
G1 F2800 X122.25 Y117.599 E54.48407
G0 F9000 X122.816 Y117.599
G1 F2800 X117.599 Y122.816 E54.71719
G0 F9000 X117.599 Y123.382
G1 F2800 X123.382 Y117.599 E54.9756
G0 F9000 X123.948 Y117.599
G1 F2800 X117.599 Y123.948 E55.25931
G0 F9000 X117.599 Y124.513
G1 F2800 X124.513 Y117.599 E55.56826
G0 F9000 X125.079 Y117.599
G1 F2800 X117.599 Y125.079 E55.9025
G0 F9000 X117.599 Y125.645
G1 F2800 X125.645 Y117.599 E56.26204
G0 F9000 X126.21 Y117.599
G1 F2800 X117.599 Y126.21 E56.64682
G0 F9000 X117.599 Y126.776
G1 F2800 X126.776 Y117.599 E57.0569
G0 F9000 X127.342 Y117.599
G1 F2800 X117.599 Y127.342 E57.49227
G0 F9000 X117.599 Y127.907
G1 F2800 X127.907 Y117.599 E57.95288
G0 F9000 X128.473 Y117.599
G1 F2800 X117.599 Y128.473 E58.43878
G0 F9000 X117.599 Y129.039
G1 F2800 X129.039 Y117.599 E58.94998
G0 F9000 X129.604 Y117.599
G1 F2800 X117.599 Y129.604 E59.48643
G0 F9000 X117.599 Y130.17
G1 F2800 X130.17 Y117.599 E60.04816
G0 F9000 X130.736 Y117.599
G1 F2800 X117.599 Y130.736 E60.63519
G0 F9000 X117.599 Y131.301
G1 F2800 X131.301 Y117.599 E61.24747
G0 F9000 X131.867 Y117.599
G1 F2800 X117.599 Y131.867 E61.88503
G0 F9000 X117.599 Y132.433
G1 F2800 X132.433 Y117.599 E62.54789
